X: 11
T: Jack Latin
R: reel
M: 2/4
L: 1/16
Z: 2010 John Chambers <jc:trillian.mit.edu>
B: Anonymous manuscript tune book (1800-1840) p.7
F: http://www.asaplive.com/archive/browse_by_collection.asp
N: The asaplive.com web site is complex, and links to its files don't usually work.
K: G
|: GBdB ecdB | GBdB c2BA | GBdB ecdB | cAAB c2BA :|
|: gdBd gdBd | gdBd c2BA | gdBd gdBd | ceAB c2BA |
   gdBd gdBd | gdBd c2BA | gfed edeg | aAAB c2BA :|


%%sep 5 1 500

